X:1
T:The Ships Are Sailing
R:reel
M:4/4
L:1/8
K:Edor
|:Beed BcdB|AD (3FED ADFD|~E2EF GFGA|Beef gfed|
|Beed BcdB|AD (3FED ADFD|~E2EF GFGA|1 Beed ~e2ed:|2 Beed ~e2ef|]
|:gfga bgeg|fefg afdf|gfga bgeg|fedf ~e2ef|
|gfga bgeg|fefg afdf|~g2bg ~f2af|1 ~e2ef gfef:|2 ~e2ef gfed|]